!!!COM: Georges Bizet
!!!CNT: Francais
!!!TXO: Francais
!!!OTL: Re^ve de la Bien Aime/e
!!!LYR: Louis de Courmont
!!!ENC: Jacob Pegg
!!!YOR: Romantic French Song 1830-1870 -David Tunley, ed.,
!!!YOR: New York: Garland Publishing, Inc., 1995, Vol. 4
!!!ODT: 1868/
!!NB: Vocal melody and text only encoded.
!!NB: First instance of melodic material only encoded.
**kern	**silbe
*clef G2	*
*k[b-e-]	*
*M2/4	*
!!created: 5/7/03 21:52
!!proofed and posted: 5/7/03 23:59
!!edit time: 49 min.
=4	=4
4r	.
8r	.
{8f	{J'ai
=5	=5
8b-	re^-
8a	-ve/
8b-	que
8bn	mon
=6	=6
[2cc	coeur
=7	=7
12cc]	|
12a	e/-
12b-	-tait,
12f	com-
12e-	-me
12d	ja-
=8	=8
2f}	-dis,}
=9	=9
8r	.
{8d	{U-
8f	-ne
[8b-	sour-
=10	=10
8b-]	|
4a	-ce
8e-	d'eaux
=11	=11
[4g	vi-
(16g]	|
16f	|
16e-	|
16d)	|
=12	=12
2f}	-ves,}
=13	=13
8r	.
{(8a	{Et
8b-)	lui,
16r	.
16bn	l'oi-
=14	=14
(4dd	-seau
[4cc)	|
=15	=15
8cc]	|
(24b-	de
24cc	|
24b-)	|
8a-	pa-
8g	-ra-
=16	=16
2f}	-dis}
=17	=17
4r	.
{8d	{Qui
8f	chan-
=18	=18
(8f	-tait
8b-)	|
8b-	sur
8dd	ses
=19	=19
[4dd	ri-
(16dd]	|
16een	|
16dd	|
16bn)	|
=20	=20
[4a	|
(16a]	|
16bn	|
16a	|
16en)	|
=21	=21
2d}	-ves.}
=22	=22
2r	.
=23	=23
8r	.
{8f#	{J'ai
8a	re^-
8a	-ve/
=24	=24
8a	que
(16g	mon
16f#)	|
8g	oeil
8cc#	e/-
=25	=25
4bn	-tait
12a	un
12g	pur
12f#	ra-
=26	=26
2a}	-yon}
=27	=27
4r	.
{(8bn	{De
8a)	|
=28	=28
8g	l'au-
8bn	-be
(16bnq	|
16ddq	|
8cc#)	prin-
8a	-ta-
=29	=29
[2dd	-nie\-
=30	=30
8dd]}	-re;}
16r	.
{16dd	{Et
[4dd	lui,
=31	=31
8dd]	|
8r	.
[4dd	lui
=32	=32
(4.dd]	|
8fn)	le
=33	=33
(64ccq	le/-
8b-)	|
8a	-ger
8b-	pa-
8bn	-pil-
=34	=34
[2cc	-lon
=35	=35
12cc]}	|}
{12b-	{Vo-
12a	-lant
12b-	dans
12d	sa
12g	lu-
=36	=36
4g	-mie\-
[4f	-re.
=37	=37
8f]}	|}
8r	.
4r;	.
=38	=38
{2a-	{Ah!
=39	=39
4r	.
8.a-	J'ai
16a-	re^-
=40	=40
2a-	-ve/...
=41	=41
4r	.
8a-	que
8a-	mon
=42	=42
2an	corps...
=43	=43
8r	.
8a	e/-
[4a	-tait
=44	=44
4a]	|
12a	i-
12a	-na-
12a	-ni-
=45	=45
4a}	-me/,}
8r	.
{8a	{Plus
=46	=46
2b-	froid,
=47	=47
8r	.
8cc#	plus
8.cc#	blanc
16een	que
=48	=48
2een	nei-
=49	=49
4g}	-ge;}
8.r	.
{16cc#	{Et
=50	=50
4dd	lui,
12r	.
12g#	le
12g#	lin-
=51	=51
[4bn	-ceul
8bn]	|
16bn	bien
16bn	fer-
=52	=52
4dd}	-me/...}
8r	.
{8bn	{Qui
=53	=53
8a#	le
8bn	cou-
8.dd	-vre et
16ff	pro-
=54	=54
(2ff	-te/-
=55	=55
[4f)	-ge.
8f]}	|}
8r	.
=56	=56
12r	.
{12gg	{J'ai
12ff	re^-
12dd	-ve
12ee-	que
12dd	mon
=57	=57
12b-	corps
12cc	e/-
12b-	-tait
12c	plus
12.a;	froid
24g	que
=58	=58
[2f	nei-
=59	=59
2f]	|
=60	=60
4B-}	-ge!}
4r	.
*-	*-
